!!!COA:	Josquin des Prez
!!!CDT:	~1450-1521/08/27
!!!OPR:	Missa Mi mi
!!!ONM:	2
!!!OTL:	Gloria
!!!AGN:	Mass; Gloria
!!!SCT:	NJE 99.1
!!!SCA:	New Josquin Edition 99.1
!!!voices:	4
!!!voices-OPR:	4
**kern	**text	**kern	**text	**kern	**text	**kern	**text
*staff4	*staff4	*staff3	*staff3	*staff2	*staff2	*staff1	*staff1
*Ivox	*	*Ivox	*	*Ivox	*	*Ivox	*
*I"Bassus	*	*I"Tenor	*	*I"Contratenor	*	*I"Superius	*
*I'B	*	*I'T	*	*I'Ct	*	*I'S	*
*>[A,B]	*>[A,B]	*>[A,B]	*>[A,B]	*>[A,B]	*>[A,B]	*>[A,B]	*>[A,B]
*>A	*>A	*>A	*>A	*>A	*>A	*>A	*>A
*clefF4	*	*clefF4	*	*clefGv2	*	*clefG2	*
*k[]	*	*k[]	*	*k[]	*	*k[]	*
*M2/1	*	*M2/1	*	*M2/1	*	*M2/1	*
*met(C)	*	*met(C)	*	*met(C)	*	*met(C)	*
!!section: Et in terra
!!!OMD: Et in terra
=1-	=1-	=1-	=1-	=1-	=1-	=1-	=1-
1E	Et	1G	Et	1e	Et	1b	Et
1E	in	1G	in	1e	in	1b	in
=2	=2	=2	=2	=2	=2	=2	=2
2E\	ter-	2G\	ter-	2e\	ter-	2b\	ter-
2E\	-ra	2G\	-ra	2e\	-ra	2b\	-ra
2AA/	pax	2A\	pax	2e\	pax	2cc\	pax
2AA/	ho-	2A\	ho-	2e\	ho-	2cc\	ho-
=3	=3	=3	=3	=3	=3	=3	=3
2AA/	-mi-	2A\	-mi-	2c\	-mi-	2a/	-mi-
2AA/	-ni-	2A\	-ni-	2c\	-ni-	2a/	-ni-
1E	-bus	1G	-bus	1B	-bus	1b	-bus
=4	=4	=4	=4	=4	=4	=4	=4
2.C/	bo-	2G\	bo-	1c	bo-	2.e/	bo-
.	.	2A\	-ne	.	.	.	.
4D\	-ne	.	.	.	.	4f/	-ne
2E\	vo-	2G\	vo-	2B\	-ne	2g/	vo-
2F\	-lun-	2c\	.	2A/	vo-	2a/	-lun-
=5	=5	=5	=5	=5	=5	=5	=5
2G\	-ta-	2B\	.	2G/	-lun-	2b\	-ta-
2A\	.	2A\	-lun-	2F/	-ta-	4cc\	.
.	.	.	.	.	.	2a/	.
1E	.	1B	-ta-	1E	-tis	.	.
.	.	.	.	.	.	8g#i/L	.
.	.	.	.	.	.	8f#i/J	.
.	.	.	.	.	.	2g#i/	.
=6	=6	=6	=6	=6	=6	=6	=6
0AA	-tis	0A	-tis	2r	.	1a	-tis
.	.	.	.	2E/	lau-	.	.
.	.	.	.	2F/	-da-	2r	.
.	.	.	.	4E/	.	2a/	lau-
.	.	.	.	[4F/	.	.	.
=7	=7	=7	=7	=7	=7	=7	=7
1r	.	1r	.	4F/]	.	2g/	-da-
.	.	.	.	2E/	-mus	.	.
.	.	.	.	.	.	2f/	-mus
.	.	.	.	4D/	.	.	.
2r	.	2r	.	1E	te	1e	te
2AA/	lau-	2A\	lau-	.	.	.	.
=8	=8	=8	=8	=8	=8	=8	=8
2C/	-da-	2G\	-da-	1r	.	1r	.
2D\	-mus	2F\	-mus	.	.	.	.
1E	te	1E	te	2r	.	2r	.
.	.	.	.	2G/	be-	2e/	be-
=9	=9	=9	=9	=9	=9	=9	=9
1r	.	1r	.	2A/	-ne-	2f/	.
.	.	.	.	2A/	-di-	4e/	-ne-
.	.	.	.	.	.	2f/	-di-
2r	.	2r	.	2G/	-ci-	.	.
.	.	.	.	.	.	2e/	-ci-
2D\	be-	2A\	be-	2F/	-mus	.	.
.	.	.	.	.	.	4d/	-mus
=10	=10	=10	=10	=10	=10	=10	=10
2.G\	-ne-	2B\	-ne-	1E	te	1e	te
.	.	4B\	-di-	.	.	.	.
4F\	-di-	4.A\	-ci-	.	.	.	.
2E\	-ci-	.	.	2r	.	1r	.
.	.	8G\	.	.	.	.	.
.	.	2c\	.	.	.	.	.
2D\	-mus	.	.	2d\	a-	.	.
.	.	4B\	-mus	.	.	.	.
=11	=11	=11	=11	=11	=11	=11	=11
1C	te	1c	te	2.e\	.	2r	.
.	.	.	.	.	.	2g/	a-
.	.	.	.	4d\	-do-	.	.
1r	.	1r	.	2c\	-ra-	2a/	.
.	.	.	.	4B\	.	2b\	-do-
.	.	.	.	[4e\	.	.	.
=12	=12	=12	=12	=12	=12	=12	=12
0r	.	0r	.	4e\]	.	2cc\	-ra-
.	.	.	.	4c\	.	.	.
.	.	.	.	4d\	.	4a/	.
.	.	.	.	8c\L	.	4.b\	.
.	.	.	.	8B\J	.	.	.
.	.	.	.	4A/	.	.	.
.	.	.	.	.	.	8a/	.
.	.	.	.	4c\	.	2a/	.
.	.	.	.	2B\	-mus	.	.
.	.	.	.	.	.	4g#i/	-mus
=13	=13	=13	=13	=13	=13	=13	=13
2r	.	2r	.	1A	te	1a	te
1AA	a-	2.c\	a-	.	.	.	.
.	.	.	.	1r	.	1r	.
.	.	8B\L	-do-	.	.	.	.
.	.	8A\J	.	.	.	.	.
2C/	-do-	4G\	.	.	.	.	.
.	.	4A\	.	.	.	.	.
=14	=14	=14	=14	=14	=14	=14	=14
2BB/	-ra-	2B\	-ra-	1r	.	2r	.
2AA/	-mus	2c\	-mus	.	.	2a/	glo-
2E\	te	2B\	te	2r	.	2.b\	-ri-
2E\	glo-	2G\	glo-	2e\	glo-	.	.
.	.	.	.	.	.	4g/	-fi-
=15	=15	=15	=15	=15	=15	=15	=15
2F\	-ri-	2c\	-ri-	2A/	-ri-	2a/	-ca-
2G\	-fi-	2B\	-fi-	2e\	-fi-	2b\	-mus
2A\	-ca-	2A\	-ca-	2.c\	-ca-	2.cc\	te
2F\	-mus	2A\	-mus	.	.	.	.
.	.	.	.	4d\	-mus	8b/L	.
.	.	.	.	.	.	8a/J	.
=16	=16	=16	=16	=16	=16	=16	=16
2E\	te	2B\	te	2e\	te	2g/	.
2E\	Gra-	2B\	Gra-	2e\	Gra-	2g/	Gra-
2A\	-ti-	2c\	-ti-	2e\	-ti-	2a/	-ti-
2G\	-as	2B\	-as	2e\	-as	2b\	-as
=17	=17	=17	=17	=17	=17	=17	=17
2A\	a-	2A\	a-	2e\	a-	2cc\	a-
2E\	-gi-	2G\	-gi-	2e\	-gi-	2b\	-gi-
2F\	-mus	2A\	-mus	2c\	-mus	2a/	-mus
2F\	ti-	2A\	ti-	2d\	ti-	2a/	ti-
=18	=18	=18	=18	=18	=18	=18	=18
1E	-bi	1B	-bi	1e	-bi	1g	-bi
2r	.	2r	.	2r	.	2r	.
2E\	prop-	2B\	prop-	2e\	prop-	2g/	prop-
=19	=19	=19	=19	=19	=19	=19	=19
2A\	-ter	2c\	-ter	2e\	-ter	2a/	.
2G\	ma-	2B\	ma-	2e\	ma-	2b\	-ter
2.F\	-gnam	1A	-gnam	2c\	-gnam	4cc\	ma-
.	.	.	.	.	.	2a/	.
.	.	.	.	2c\	glo-	.	.
4E\	glo-	.	.	.	.	4g/	-gnam
=20	=20	=20	=20	=20	=20	=20	=20
2D\	-ri-	2A\	glo-	2d\	-ri-	4f/	glo-
.	.	.	.	.	.	4e/	-ri-
2C/	-am	2E\	-ri-	2e\	-am	1e	-am
1D	tu-	2F\	-am	1A	tu-	.	.
.	.	2F\	tu-	.	.	2d/	tu-
=21	=21	=21	=21	=21	=21	=21	=21
1AA	-am	1E	-am	1A	-am	0e	-am
2r	.	2r	.	2r	.	.	.
[2C/	Do-	[2E\	Do-	[2G/	Do-	.	.
=22	=22	=22	=22	=22	=22	=22	=22
2C/]	.	2E\]	.	2G/]	.	0r	.
2BB/	-mi-	2D\	-mi-	2G/	-mi-	.	.
2AA/	-ne	2E\	-ne	2c\	-ne	.	.
2AA/	de-	2F\	de-	2c\	de-	.	.
=23	=23	=23	=23	=23	=23	=23	=23
2GG/	-us	2G\	-us	2B\	-us	0r	.
2GG/	rex	2.G\	rex	2B\	rex	.	.
2C/	ce-	.	.	2c\	ce-	.	.
.	.	4D\	.	.	.	.	.
2D\	-le-	2F\	ce-	2A/	-le-	.	.
=24	=24	=24	=24	=24	=24	=24	=24
2E\	-stis	2E\	-le-	2G/	-stis	0r	.
2E\	de-	2G\	-stis	2G/	de-	.	.
2F\	-us	2F\	de-	2A/	-us	.	.
2E\	pa-	2G\	-us	2B\	pa-	.	.
=25	=25	=25	=25	=25	=25	=25	=25
2C/	-ter	2E\	pa-	2c\	-ter	0r	.
4AA/	om-	4C/	-ter	4c\	om-	.	.
4.E\	-ni-	4.G\	om-	2B\	-ni-	.	.
8D\	.	8F\	.	.	.	.	.
4C/	.	2E\	-ni-	2A/	.	.	.
2BB/	-po-	.	.	.	.	.	.
.	.	4D\	-po-	4G#i/	-po-	.	.
=26	=26	=26	=26	=26	=26	=26	=26
1AA	-tens	1E	-tens	2A/	-tens	2r	.
.	.	.	.	2.c\	Do-	2.e/	Do-
1r	.	1r	.	.	.	.	.
.	.	.	.	4c\	-mi-	4e/	-mi-
.	.	.	.	2c\	-ne	2e/	-ne
=27	=27	=27	=27	=27	=27	=27	=27
0r	.	0r	.	2B\	fi-	2d/	fi-
.	.	.	.	2A/	-li	2c/	-li
.	.	.	.	2c\	u-	2e/	u-
.	.	.	.	2B\	-ni-	4d/	-ni-
.	.	.	.	.	.	[4g/	-ge-
=28	=28	=28	=28	=28	=28	=28	=28
0r	.	0r	.	2A/	-ge-	4g/]	.
.	.	.	.	.	.	8f#i/L	-ni-
.	.	.	.	.	.	8e/J	.
.	.	.	.	2A/	-ni-	2f#i/	.
.	.	.	.	1G	-te	1g	-te
=29	=29	=29	=29	=29	=29	=29	=29
1C	jhe-	1E	jhe-	1G	jhe-	1g	jhe-
1AA;	-su	1E;	-su	1c;	-su	1a;	-su
=30	=30	=30	=30	=30	=30	=30	=30
1AA	cri-	1A	cri-	1c	cri-	1a	cri-
1E;	-ste	1G;	-ste	1B;	-ste	1b;	-ste
=31	=31	=31	=31	=31	=31	=31	=31
2r	.	2r	.	2r	.	2r	.
2.E\	Do-	2.G\	Do-	2.B\	Do-	2.g/	Do-
4E\	-mi-	4G\	-mi-	4B\	-mi-	4g/	-mi-
2E\	-ne	2G\	-ne	2c\	-ne	2g/	-ne
=32	=32	=32	=32	=32	=32	=32	=32
2D\	de-	2A\	de-	2d\	de-	2f/	de-
1C	-us	1c	-us	2G/	-us	1e	-us
.	.	.	.	2G/	a-	.	.
2AA/	a-	2C/	a-	4A/	-gnus	2e/	a-
.	.	.	.	[4A/	de-	.	.
=33	=33	=33	=33	=33	=33	=33	=33
2BB/	-gnus	2D\	-gnus	4A/]	.	2d/	-gnus
.	.	.	.	8G#i/L	.	.	.
.	.	.	.	8F#i/J	.	.	.
2BB/	de-	2D\	de-	2G#i/	.	2d/	de-
2.AA/	-i	2E\	-i	2.A/	-i	2.c/	-i
.	.	[2A\	fi-	.	.	.	.
4BB/	.	.	.	8Gni/L	.	4d/	.
.	.	.	.	8Fni/J	.	.	.
=34	=34	=34	=34	=34	=34	=34	=34
4C/	.	2A\]	.	1E	.	4e/	.
4D\	.	.	.	.	.	4f/	.
2.E\	fi-	2G\	.	.	.	2.g/	fi-
.	.	2c\	.	2r	.	.	.
4F\	-li-	.	.	.	.	4a/	-li-
2G\	-us	2B\	-li-	[2e\	fi-	2b\	-us
=35	=35	=35	=35	=35	=35	=35	=35
2A\	pa-	2A\	-us	2e\]	.	2cc\	pa-
2E\	.	2G\	pa-	2e\	-li-	2b\	.
1F	.	1A	.	2c\	-us	4a/	.
.	.	.	.	.	.	2a/	.
.	.	.	.	2d\	pa-	.	.
.	.	.	.	.	.	8g/L	.
.	.	.	.	.	.	8f/J	.
=36	=36	=36	=36	=36	=36	=36	=36
0El	-tris	0Bl	-tris	0el	-tris	0gl	-tris
!!LO:LB:i:g=z
=37||	=37||	=37||	=37||	=37||	=37||	=37||	=37||
*>B	*>B	*>B	*>B	*>B	*>B	*>B	*>B
*clefF4	*	*clefF4	*	*clefGv2	*	*clefG2	*
*k[]	*	*k[]	*	*k[]	*	*k[]	*
*M2/1	*	*M2/1	*	*M2/1	*	*M2/1	*
*met(C|)	*	*met(C|)	*	*met(C|)	*	*met(C|)	*
!!section: Qui tollis
!!!OMD: Qui tollis
0r	.	0E	Qui	0e	Qui	0g	Qui
=38	=38	=38	=38	=38	=38	=38	=38
0r	.	1E	tol-	1e	tol-	1g	tol-
.	.	1E	-lis	1e	-lis	1g	-lis
=39	=39	=39	=39	=39	=39	=39	=39
0r	.	1F	pec-	1d	pec-	1a	pec-
.	.	1E	-ca-	1e	-ca-	1g	-ca-
=40	=40	=40	=40	=40	=40	=40	=40
0r	.	1F	-ta	2c\	-ta	1a	-ta
.	.	.	.	1d	mun-	.	.
.	.	1G	mun-	.	.	1b	mun-
.	.	.	.	4c\	.	.	.
.	.	.	.	4B\	.	.	.
=41	=41	=41	=41	=41	=41	=41	=41
0r	.	1.A	-di	2A/	.	1.cc	-di
.	.	.	.	1c	.	.	.
.	.	4G\	.	2d\	.	4b\	.
.	.	4F\	.	.	.	4a/	.
=42	=42	=42	=42	=42	=42	=42	=42
0r	.	1E	.	2.e\	.	1g	.
.	.	.	.	4d\	.	.	.
.	.	1E	mi-	2c\	.	1g	mi-
.	.	.	.	2B\	-di	.	.
=43	=43	=43	=43	=43	=43	=43	=43
0r	.	1F	-se-	2.A/	mi-	1a	.
.	.	.	.	4B\	-se-	.	.
.	.	2E\	-re-	2c\	-re-	2g/	-se-
.	.	2D\	-re	[2d\	.	[2f/	-re-
=44	=44	=44	=44	=44	=44	=44	=44
0r	.	1G	no-	4d\]	.	4f/]	.
.	.	.	.	4c\	.	4e/	.
.	.	.	.	1B	-re	1e	-re
.	.	1F	.	.	.	.	.
.	.	.	.	2A/	no-	2d/	no-
=45	=45	=45	=45	=45	=45	=45	=45
1r	.	1E	-bis	1B	-bis	1e	-bis
2r	.	2r	.	2r	.	2r	.
2E\	Qui	2B\	Qui	2e\	Qui	2g/	Qui
=46	=46	=46	=46	=46	=46	=46	=46
1E	tol-	1B	tol-	1e	tol-	1g	tol-
1E	-lis	1B	-lis	1e	-lis	1g	-lis
=47	=47	=47	=47	=47	=47	=47	=47
1AA	pec-	1c	pec-	1e	pec-	1a	pec-
1E	-ca-	1B	-ca-	1e	-ca-	1g	-ca-
=48	=48	=48	=48	=48	=48	=48	=48
1F	-ta	1A	-ta	1c	-ta	1a	-ta
1F	mun-	1A	mun-	1d	mun-	1f	mun-
=49	=49	=49	=49	=49	=49	=49	=49
1E	-di	1B	-di	1e	-di	1g	-di
2r	.	2r	.	2r	.	2r	.
[2E\	su-	[2B\	su-	[2e\	su-	[2g/	su-
=50	=50	=50	=50	=50	=50	=50	=50
2E\]	.	2B\]	.	2e\]	.	2g/]	.
2E\	-sci-	2B\	-sci-	2e\	-sci-	2g/	-sci-
1E	-pe	1B	-pe	1e	-pe	1g	-pe
=51	=51	=51	=51	=51	=51	=51	=51
2r	.	2r	.	2r	.	2r	.
1E	de-	1B	de-	1e	de-	1g	de-
2E\	-pre-	2B\	-pre-	2e\	-pre-	2g/	-pre-
=52	=52	=52	=52	=52	=52	=52	=52
1C	-ca-	1c	-ca-	1e	-ca-	1g	-ca-
1C	-ti-	1c	-ti-	1e	-ti-	1g	-ti-
=53	=53	=53	=53	=53	=53	=53	=53
1C	-o-	1G	-o-	1c	-o-	1e	-o-
1C	-nem	1E	-nem	1c	-nem	1e	-nem
=54	=54	=54	=54	=54	=54	=54	=54
0D	no-	0F	no-	0A	no-	0d	no-
=55	=55	=55	=55	=55	=55	=55	=55
0AA	-stram	1.E	-stram	1A	-stram	1c	-stram
.	.	.	.	2r	.	2r	.
.	.	4D\	.	2A/	Qui	2cc\	Qui
.	.	4C/	.	.	.	.	.
=56	=56	=56	=56	=56	=56	=56	=56
0r	.	0C	.	1.e	se-	1cc	se-
.	.	.	.	.	.	1cc	-des
.	.	.	.	4d\	.	.	.
.	.	.	.	4c\	.	.	.
=57	=57	=57	=57	=57	=57	=57	=57
0r	.	0r	.	2d\	.	1b	ad
.	.	.	.	2e\	.	.	.
.	.	.	.	1f	-des	1a	dex-
=58	=58	=58	=58	=58	=58	=58	=58
0r	.	0r	.	1e	ad	1g	-te-
.	.	.	.	1e	dex-	1cc	-ram
=59	=59	=59	=59	=59	=59	=59	=59
0r	.	0r	.	2d\	.	2b\	pa-
.	.	.	.	1c	.	1a	.
.	.	.	.	4B\	-te-	4g/	.
.	.	.	.	4A/	.	4f/	.
=60	=60	=60	=60	=60	=60	=60	=60
1r	.	1r	.	2G/	-ram	0e	-tris
.	.	.	.	1A	pa-	.	.
1AA	Qui	1c	Qui	.	.	.	.
.	.	.	.	4G/	.	.	.
.	.	.	.	4F/	.	.	.
=61	=61	=61	=61	=61	=61	=61	=61
1C	se-	1c	se-	0E	-tris	0r	.
1C	-des	1c	-des	.	.	.	.
=62	=62	=62	=62	=62	=62	=62	=62
2D\	ad	1B	ad	0r	.	0r	.
2E\	.	.	.	.	.	.	.
1F	dex-	1A	dex-	.	.	.	.
=63	=63	=63	=63	=63	=63	=63	=63
1.E	.	1G	-te-	0r	.	0r	.
.	.	1c	-ram	.	.	.	.
2F\	-te-	.	.	.	.	.	.
=64	=64	=64	=64	=64	=64	=64	=64
2G\	-ram	2B\	pa-	0r	.	0r	.
1F	pa-	1A	.	.	.	.	.
4E\	.	4G\	.	.	.	.	.
4D\	.	4F\	.	.	.	.	.
=65	=65	=65	=65	=65	=65	=65	=65
1.C	-tris	1E	-tris	1r	.	1r	.
.	.	1E	mi-	1G	mi-	1e	mi-
2C/	mi-	.	.	.	.	.	.
=66	=66	=66	=66	=66	=66	=66	=66
1C	-se-	1E	-se-	1G	-se-	1e	-se-
1C	-re-	1E	-re-	1G	-re-	1e	-re-
=67	=67	=67	=67	=67	=67	=67	=67
0AA	-re	0E	-re	0A	-re	0c	-re
=68	=68	=68	=68	=68	=68	=68	=68
0GG	no-	0G	no-	0B	no-	0d	no-
=69	=69	=69	=69	=69	=69	=69	=69
[0C	-bis	0E	-bis	1G	-bis	1e	-bis
.	.	.	.	2r	.	2r	.
.	.	.	.	2G/	Quo-	[2e/	Quo-
=70	=70	=70	=70	=70	=70	=70	=70
0C]	.	0r	.	1.c	.	2e/]	.
.	.	.	.	.	.	2e/	-ni-
.	.	.	.	.	.	1e	-am
.	.	.	.	4B\	.	.	.
.	.	.	.	4A/	.	.	.
=71	=71	=71	=71	=71	=71	=71	=71
0r	.	0r	.	2B\	.	1g	tu
.	.	.	.	1c	-ni-	.	.
.	.	.	.	.	.	1a	so-
.	.	.	.	[2d\	-am	.	.
=72	=72	=72	=72	=72	=72	=72	=72
0r	.	0r	.	2d\]	.	1b	-lus
.	.	.	.	2e\	tu	.	.
.	.	.	.	2c\	so-	2cc\	sanc-
.	.	.	.	2d\	-lus	[2b\	.
=73	=73	=73	=73	=73	=73	=73	=73
0r	.	1r	.	2A/	sanc-	4b\]	.
.	.	.	.	.	.	4a/	.
.	.	.	.	2c\	.	1a	.
.	.	2r	.	1B	.	.	.
.	.	2B\	tu	.	.	2g#i/	.
=74	=74	=74	=74	=74	=74	=74	=74
1r	.	1.c	so-	0A	-tus	1a	-tus
1AA	tu	.	.	.	.	1r	.
.	.	4B\	.	.	.	.	.
.	.	4A\	.	.	.	.	.
=75	=75	=75	=75	=75	=75	=75	=75
1C	so-	2G\	.	0r	.	0r	.
.	.	1A	.	.	.	.	.
1D	-lus	.	.	.	.	.	.
.	.	[2B\	.	.	.	.	.
=76	=76	=76	=76	=76	=76	=76	=76
1E	do-	2B\]	.	0r	.	0r	.
.	.	2c\	-lus	.	.	.	.
2C/	.	2A\	do-	.	.	.	.
2D\	.	[2B\	.	.	.	.	.
=77	=77	=77	=77	=77	=77	=77	=77
2AA/	.	4B\]	.	1r	.	0r	.
.	.	4A\	.	.	.	.	.
2C/	.	1A	.	.	.	.	.
1BB	-mi-	.	.	1B	tu	.	.
.	.	2G#i\	-mi-	.	.	.	.
=78	=78	=78	=78	=78	=78	=78	=78
1AA	-nus	1A	-nus	0c	so-	1r	.
1AA	tu	1A	tu	.	.	1e	tu
=79	=79	=79	=79	=79	=79	=79	=79
1AA	so-	1A	so-	0c	-lus	1e	so-
1AA	-lus	1A	-lus	.	.	1e	-lus
=80	=80	=80	=80	=80	=80	=80	=80
0C	al-	1A	al-	0c	al-	0e	al-
.	.	1G	-tis-	.	.	.	.
=81	=81	=81	=81	=81	=81	=81	=81
1D	-tis-	0F	-si-	1A	-tis-	1d	-tis-
1D	-si-	.	.	1A	-si-	1d	-si-
=82	=82	=82	=82	=82	=82	=82	=82
1AA	-mus	1E	-mus	1A	-mus	1e	-mus
2r	.	2r	.	2r	.	2r	.
[2C/	jhe-	[2C/	jhe-	2G/	jhe-	[2e/	jhe-
=83	=83	=83	=83	=83	=83	=83	=83
2C/]	.	2C/]	.	1G	-su	2e/]	.
2BB/	-su	2D\	-su	.	.	2d/	-su
1AA	cri-	2E\	cri-	1A	cri-	1c	cri-
.	.	2F\	.	.	.	.	.
=84	=84	=84	=84	=84	=84	=84	=84
1GG	-ste	2G\	-ste	1D	-ste	1B	-ste
.	.	4F\	.	.	.	.	.
.	.	4E\	.	.	.	.	.
1GG	Cum	1D	.	2r	.	1B	Cum
.	.	.	.	[2G/	Cum	.	.
=85	=85	=85	=85	=85	=85	=85	=85
1C	sanc-	2r	.	2G/]	.	1c	sanc-
.	.	2.G\	Cum	4F/	.	.	.
.	.	.	.	4E/	.	.	.
2BB/	-to	.	.	2D/	sanc-	2d/	-to
.	.	4F\	.	.	.	.	.
[2C/	spi-	4E\	.	2C/	-to	[2e/	spi-
.	.	4D\	.	.	.	.	.
=86	=86	=86	=86	=86	=86	=86	=86
4C/]	.	1C	sanc-	2E/	spi-	4e/]	.
4BB/	.	.	.	.	.	4d/	.
2AA/	-ri-	.	.	2F/	.	1c	.
1GG	-tu	1D	-to	1G	-ri-	.	.
.	.	.	.	.	.	2B/	-ri-
=87	=87	=87	=87	=87	=87	=87	=87
2r	.	2.C/	spi-	1E	-tu	4c/	-tu
.	.	.	.	.	.	4d/	.
1C	in	.	.	.	.	4e/	.
.	.	4D\	-ri-	.	.	4f/	.
.	.	4E\	-tu	2r	.	2g/	.
.	.	4C/	.	.	.	.	.
[2AA/	glo-	[2c\	in	[2C/	in	[2a/	in
=88	=88	=88	=88	=88	=88	=88	=88
2AA/]	.	2c\]	.	2C/]	.	2a/]	.
2BB/	.	2B\	glo-	2D/	glo-	1g	glo-
2C/	-ri-	1A	-ri-	2E/	-ri-	.	.
2D\	-a	.	.	2F/	-a	2f#i/	-ri-
=89	=89	=89	=89	=89	=89	=89	=89
2GG/	de-	1G	-a	2D/	de-	1g	-a
2.G\	.	.	.	2.E/	-i	.	.
.	.	2r	.	.	.	2r	.
4F\	.	.	.	4D/	.	.	.
[2E\	-i	[2G\	de-	[2C/	.	[2g/	de-
=90	=90	=90	=90	=90	=90	=90	=90
2E\]	.	2G\]	.	2C/]	.	2g/]	.
4D\	pa-	1A	-i	1c	pa-	4f/	.
4C/	.	.	.	.	.	4e/	.
1D	.	.	.	.	.	1f	-i
.	.	4G\	pa-	2B\	.	.	.
.	.	4F\	.	.	.	.	.
=91	=91	=91	=91	=91	=91	=91	=91
1C	-tris	2.G\	.	1c	-tris	2.e/	pa-
.	.	4A\	.	.	.	4f/	.
1r	.	4B\	.	2r	.	4g/	.
.	.	4G\	.	.	.	4e/	.
.	.	[2A\	.	[2c\	A-	[2f/	.
=92	=92	=92	=92	=92	=92	=92	=92
1C	A-	2A\]	.	4c\]	.	4f/]	.
.	.	.	.	4d\	.	4e/	.
.	.	2G\	-tris	2e\	.	1e	-tris
1D	.	1F	A-	2.A/	.	.	.
.	.	.	.	.	.	2d/	A-
.	.	.	.	4B\	.	.	.
=93	=93	=93	=93	=93	=93	=93	=93
2C/	.	[0El	-men	2c\	.	[0el	-men
1AA	.	.	.	1c	.	.	.
4GG/	.	.	.	4B\	.	.	.
4FF/	.	.	.	4A/	.	.	.
=94	=94	=94	=94	=94	=94	=94	=94
0EEl	-men	0E]	.	2.G/	.	0e]	.
.	.	.	.	4A/	.	.	.
.	.	.	.	1Bl	-men	.	.
==	==	==	==	==	==	==	==
*-	*-	*-	*-	*-	*-	*-	*-
!!!RDF**kern: l=long note in original notation
!!!RDF**kern: i=editorial accidental
!!!RDF**kern: V=start of tuplet marker
!!!RDF**kern: Z=end of tuplet marker
!!!ENC:	Jesse Rodin (8/14/2012)
!!!END:	2012/08/14/
!!!EED:	Jesse Rodin
!!!EEV:	2012/08/17/
!!attribution-level@Jos: 5 (doubtful)
!!!ONB:	Translated from MusicXML and edited on 2012/08/17/ by Craig Sapp
!!muse2ps: T^@{OPR}^u^@{ONM}{. }@{OTL}^C^@{COA}?\n@{SCT}^i2I150v85,85,85,130Q16
